packages/katcn/src/icons/svg/pause.svg

<svg width="24" height="25" viewBox="0 0 24 25" fill="none" xmlns="http://www.w3.org/2000/svg">
<path fill-rule="evenodd" clip-rule="evenodd" d="M5.5 4.20801C4.65228 4.20801 4 4.86029 4 5.70801V18.708C4 19.5557 4.65228 20.208 5.5 20.208H7.1C7.82389 20.208 8.52036 19.5726 8.6 18.7649V5.70801C8.6 4.86029 7.94772 4.20801 7.1 4.20801H5.5ZM2 5.70801C2 3.75572 3.54772 2.20801 5.5 2.20801H7.1C9.05228 2.20801 10.6 3.75572 10.6 5.70801V18.808C10.6 18.8336 10.599 18.8592 10.5971 18.8847C10.4604 20.6611 8.96611 22.208 7.1 22.208H5.5C3.54772 22.208 2 20.6603 2 18.708V5.70801Z" fill="black"/>
<path fill-rule="evenodd" clip-rule="evenodd" d="M16.9 4.20801C16.0523 4.20801 15.4 4.86029 15.4 5.70801V18.708C15.4 19.5557 16.0523 20.208 16.9 20.208H18.5C19.3745 20.208 20 19.5294 20 18.808V5.70801C20 4.86029 19.3477 4.20801 18.5 4.20801H16.9ZM13.4 5.70801C13.4 3.75572 14.9477 2.20801 16.9 2.20801H18.5C20.4523 2.20801 22 3.75572 22 5.70801V18.808C22 20.6867 20.4256 22.208 18.5 22.208H16.9C14.9477 22.208 13.4 20.6603 13.4 18.708V5.70801Z" fill="black"/>
</svg>

<svg xmlns="http://www.w3.org/2000/svg" fill="none" viewBox="0 0 24 25"><path fill="#000" fill-rule="evenodd" d="M5.5 4.208c-.848 0-1.5.652-1.5 1.5v13c0 .848.652 1.5 1.5 1.5h1.6c.724 0 1.42-.635 1.5-1.443V5.708c0-.848-.652-1.5-1.5-1.5zM2 5.708c0-1.952 1.548-3.5 3.5-3.5h1.6c1.952 0 3.5 1.548 3.5 3.5v13.1q0 .038-.003.077c-.137 1.776-1.63 3.323-3.497 3.323H5.5a3.476 3.476 0 0 1-3.5-3.5zm14.9-1.5c-.848 0-1.5.652-1.5 1.5v13c0 .848.652 1.5 1.5 1.5h1.6c.875 0 1.5-.679 1.5-1.4v-13.1c0-.848-.652-1.5-1.5-1.5zm-3.5 1.5c0-1.952 1.548-3.5 3.5-3.5h1.6c1.952 0 3.5 1.548 3.5 3.5v13.1c0 1.879-1.574 3.4-3.5 3.4h-1.6a3.476 3.476 0 0 1-3.5-3.5z" clip-rule="evenodd"/></svg>
